assets/components_previews/charts/dark/radarchart.svg

<svg width="320" height="232" viewBox="0 0 320 232" fill="none" xmlns="http://www.w3.org/2000/svg">
<g filter="url(#filter0_dd_10191_39789)">
<rect x="52" y="62" width="216" height="108" rx="12" fill="#0E0F10"/>
<path d="M159 81.7321C159.619 81.3748 160.381 81.3748 161 81.7321L189.177 98C189.796 98.3573 190.177 99.0175 190.177 99.732V132.268C190.177 132.982 189.796 133.643 189.177 134L161 150.268C160.381 150.625 159.619 150.625 159 150.268L130.823 134C130.204 133.643 129.823 132.982 129.823 132.268V99.7321C129.823 99.0175 130.204 98.3573 130.823 98L159 81.7321Z" stroke="#2F1C78" stroke-width="2"/>
<path d="M159 93.7321C159.619 93.3748 160.381 93.3748 161 93.7321L178.785 104C179.403 104.357 179.785 105.018 179.785 105.732V126.268C179.785 126.982 179.403 127.643 178.785 128L161 138.268C160.381 138.625 159.619 138.625 159 138.268L141.215 128L140.715 128.866L141.215 128C140.597 127.643 140.215 126.982 140.215 126.268V105.732C140.215 105.018 140.597 104.357 141.215 104L159 93.7321Z" stroke="#2F1C78" stroke-width="2"/>
<rect x="159" y="82" width="2" height="68" fill="#2F1C78"/>
<rect x="130.055" y="99.866" width="2" height="68" transform="rotate(-60 130.055 99.866)" fill="#2F1C78"/>
<rect x="131.055" y="133.866" width="2" height="68" transform="rotate(-120 131.055 133.866)" fill="#2F1C78"/>
<path opacity="0.64" d="M144.758 125.852L156.386 138.934C157.955 140.699 160.854 140.043 161.51 137.773L166.292 121.221C166.428 120.748 166.68 120.315 167.024 119.962L180.173 106.447C181.923 104.649 180.824 101.625 178.328 101.37L160.826 99.5843C160.286 99.5291 159.74 99.6218 159.248 99.8524L145.727 106.191C144.673 106.685 144 107.743 144 108.907V123.859C144 124.594 144.27 125.303 144.758 125.852Z" fill="#2F1C78"/>
<path d="M144.758 125.852L156.386 138.934C157.955 140.699 160.854 140.043 161.51 137.773L166.292 121.221C166.428 120.748 166.68 120.315 167.024 119.962L180.173 106.447C181.923 104.649 180.824 101.625 178.328 101.37L160.826 99.5843C160.286 99.5291 159.74 99.6218 159.248 99.8524L145.727 106.191C144.673 106.685 144 107.743 144 108.907V123.859C144 124.594 144.27 125.303 144.758 125.852Z" stroke="#4329AC" stroke-width="2" stroke-linecap="round"/>
</g>
<defs>
<filter id="filter0_dd_10191_39789" x="32" y="54" width="256" height="148" filterUnits="userSpaceOnUse" color-interpolation-filters="sRGB">
<feFlood flood-opacity="0" result="BackgroundImageFix"/>
<feColorMatrix in="SourceAlpha" type="matrix" values="0 0 0 0 0 0 0 0 0 0 0 0 0 0 0 0 0 0 127 0" result="hardAlpha"/>
<feOffset dy="12"/>
<feGaussianBlur stdDeviation="10"/>
<feComposite in2="hardAlpha" operator="out"/>
<feColorMatrix type="matrix" values="0 0 0 0 0 0 0 0 0 0 0 0 0 0 0 0 0 0 0.03 0"/>
<feBlend mode="normal" in2="BackgroundImageFix" result="effect1_dropShadow_10191_39789"/>
<feColorMatrix in="SourceAlpha" type="matrix" values="0 0 0 0 0 0 0 0 0 0 0 0 0 0 0 0 0 0 127 0" result="hardAlpha"/>
<feOffset dy="2"/>
<feGaussianBlur stdDeviation="3"/>
<feComposite in2="hardAlpha" operator="out"/>
<feColorMatrix type="matrix" values="0 0 0 0 0 0 0 0 0 0 0 0 0 0 0 0 0 0 0.05 0"/>
<feBlend mode="normal" in2="effect1_dropShadow_10191_39789" result="effect2_dropShadow_10191_39789"/>
<feBlend mode="normal" in="SourceGraphic" in2="effect2_dropShadow_10191_39789" result="shape"/>
</filter>
</defs>
</svg>

<svg xmlns="http://www.w3.org/2000/svg" width="320" height="232" fill="none" viewBox="0 0 320 232"><g filter="url(#a)"><rect width="216" height="108" x="52" y="62" fill="#0E0F10" rx="12"/><path stroke="#2F1C78" stroke-width="2" d="M159 81.732a2 2 0 0 1 2 0L189.177 98a2 2 0 0 1 1 1.732v32.536a2 2 0 0 1-1 1.732L161 150.268a2 2 0 0 1-2 0L130.823 134a2 2 0 0 1-1-1.732V99.732a2 2 0 0 1 1-1.732z"/><path stroke="#2F1C78" stroke-width="2" d="M159 93.732a2 2 0 0 1 2 0L178.785 104c.618.357 1 1.018 1 1.732v20.536c0 .714-.382 1.375-1 1.732L161 138.268a2 2 0 0 1-2 0L141.215 128l-.5.866.5-.866a2 2 0 0 1-1-1.732v-20.536c0-.714.382-1.375 1-1.732z"/><path fill="#2F1C78" d="M159 82h2v68h-2z"/><path fill="#2F1C78" d="m130.055 99.866 1-1.732 58.89 34-1 1.732z"/><path fill="#2F1C78" d="m131.055 133.866-1-1.732 58.89-34 1 1.732z"/><path fill="#2F1C78" d="m144.758 125.852 11.628 13.082c1.569 1.765 4.468 1.109 5.124-1.161l4.782-16.552a3 3 0 0 1 .732-1.259l13.149-13.515c1.75-1.798.651-4.822-1.845-5.077l-17.502-1.786a3 3 0 0 0-1.578.268l-13.521 6.339a3 3 0 0 0-1.727 2.716v14.952a3 3 0 0 0 .758 1.993" opacity=".64"/><path stroke="#4329AC" stroke-linecap="round" stroke-width="2" d="m144.758 125.852 11.628 13.082c1.569 1.765 4.468 1.109 5.124-1.161l4.782-16.552a3 3 0 0 1 .732-1.259l13.149-13.515c1.75-1.798.651-4.822-1.845-5.077l-17.502-1.786a3 3 0 0 0-1.578.268l-13.521 6.339a3 3 0 0 0-1.727 2.716v14.952a3 3 0 0 0 .758 1.993Z"/></g><defs><filter id="a" width="256" height="148" x="32" y="54" color-interpolation-filters="sRGB" filterUnits="userSpaceOnUse"><feFlood flood-opacity="0" result="BackgroundImageFix"/><feColorMatrix in="SourceAlpha" result="hardAlpha" values="0 0 0 0 0 0 0 0 0 0 0 0 0 0 0 0 0 0 127 0"/><feOffset dy="12"/><feGaussianBlur stdDeviation="10"/><feComposite in2="hardAlpha" operator="out"/><feColorMatrix values="0 0 0 0 0 0 0 0 0 0 0 0 0 0 0 0 0 0 0.03 0"/><feBlend in2="BackgroundImageFix" result="effect1_dropShadow_10191_39789"/><feColorMatrix in="SourceAlpha" result="hardAlpha" values="0 0 0 0 0 0 0 0 0 0 0 0 0 0 0 0 0 0 127 0"/><feOffset dy="2"/><feGaussianBlur stdDeviation="3"/><feComposite in2="hardAlpha" operator="out"/><feColorMatrix values="0 0 0 0 0 0 0 0 0 0 0 0 0 0 0 0 0 0 0.05 0"/><feBlend in2="effect1_dropShadow_10191_39789" result="effect2_dropShadow_10191_39789"/><feBlend in="SourceGraphic" in2="effect2_dropShadow_10191_39789" result="shape"/></filter></defs></svg>
